X: 2164
Q: "Reel."
M: C
L: 1/8
K: D
uB |\
ug |\
fdfa bggb | affa geeg |
fdfa bggb | afdf (e2d)g |\
fdfa bggb | afdf bgeg |\
fgaf gabg | afdf (e2d) |]


